X:1
T:Zwölf Kirchen-Hymnen
T:O salutaris hostia
T:Abbé Vogler
T:O salutaris hostia
T:Hymne
T:CPDL - Creative Commons Attribution Non Commercial 3.0
T:CPDL - Creative Commons Attribution Non Commercial 3.0
T:CPDL - Creative Commons Attribution Non Commercial 3.0
C:Abbé Vogler
Z:CPDL - Creative Commons Attribution Non Commercial 3.0
%%score [ 1 2 3 4 ]
L:1/8
Q:1/4=100
M:3/4
K:C
V:1 treble nm="Sopran"
V:2 treble nm="Alt"
V:3 treble-8 nm="Tenor"
V:4 bass nm="Bass"
V:1
"^Andantino" z2 | z6 | z6 | z6 | z4 c2 | =f4 f2 | e4 a2 | d4 g2 | c2 z2!p! cd | efde cd | efde cd | %11
w: ||||O|sa- lu-|ta- ris|hos- ti-|a quae *|coe- * * * li _|pan- * * * dis _|
!pp! e4 d2 | c4 z2 | z6 | z6 | z6 | z4!p! A2 | c2 A2 z2 | e2 c2 z2 | ef e3 d | c4 z2 | z6 | z6 | %23
w: os- ti-|um.||||da|ro- bur,|ro- bur,|fer au- xi- li-|um.|||
 z6 | z4!p! G2 | B2 G2 z2 | d2 B2 z2 | de d3!pp! c | B4 z2 |!ff! G4 B2 | d2 B2 z2 | G2 B2 d2 | %32
w: |da|ro- bur,|ro- bur,|fer au- xi- li-|um.|Bel- la|pre- munt|bel- la hos-|
 fd B2 z2 |!p! ef de cd | ef de cd |!pp! e4 d2 | c4 z2 | z6 | z6 | z6 | z4!p! c2 | =f4 f2 | %42
w: ti- li- a|da _ ro- * bur, _|ro- * bur _ fer au-|xi- li-|um.||||O|sa- lu-|
!<(! e4 a2!<)! |!f! d4 g2 | c4 z2 |!pp! e2 e2 e2 |!<(! e4 e2!<)! |!ff!!>(! e4 e2!>)! | %48
w: ta- ris|hos- ti-|a,|o sa- lu-|ta- ris|hos- ti-|
!pp! !fermata!e4 |] %49
w: a.|
V:2
 G2 | c4 c2 | B4 e2 | A4 d2 | G2 z2 z2 | z2 A2 B2 | c6- | (c2 BA) B2 | c3 G E!p!F | GAFG EF | %10
w: O|sa- lu-|ta- ris|hos- ti-|a,|sa- lu-|ta-|* * * ris|hos- ti- a quae|coe- * * * li _|
 GAFG EF |!pp! G4 F2 | E4 z2 | z6 | z6 | z6 | z4!p! E2 | A2 E2 z2 | A2 E2 E2 | A4 ^G2 | A4 z2 | %21
w: pan- * * * dis _|os- ti-|um.||||da|ro- bur,|ro- bur, au-|xi- li-|um.|
 z6 | z6 | z6 | z4!p! D2 | G2 D2 z2 | G2 D2 D2 | G4 ^F2 |!pp! G4 z2 | z6 | %30
w: |||da|ro- bur,|ro- bur, au-|xi- li-|um.||
 z2!ff!"^Bel  -  la," G2 G2 |"^bel  -  la" G2 G2 z2 | z6 |!p! GA FG EF | GA FG EF |!pp! G4 G2 | %36
w: ||||||
!<(! G4!<)!!f! G2 | c4 c2 | B4 e2 | A4 d2 | G4!p! G2 | A4 G2- |!<(! G2 c4-!<)! |!f! (c2 BA B2) | %44
w: * O|sa- lu-|ta- ris|hos- ti-|a, o|sa- lu-|* ta-||
 c4 z2 |!pp! G2 G2 G2 |!<(! G4 G2!<)! |!ff!!>(! G4 G2!>)! |!pp! !fermata!G4 |] %49
w: ris,|o sa- lu-|ta- ris|hos- ti-|a.|
V:3
 z2 | z2 e2 ^f2 | g6- | (g2 ^fe f2) | g2 z2 z2 | z6 | z2 E2 F2 | G6 | c4!p! G2 | G6- | G4 GF | %11
w: |sa- lu-|ta-||ris,||sa- lu-|ta-|ris quae|pan-|* dis _|
!pp! EFGA B2 | c4 z2 |!ff! E4 ^G2 | B2 ^G2 z2 | E2 ^G2 B2 | dB ^G2!p! c2 | e2 c2 z2 | c2 A2 z2 | %19
w: os- * * * ti-|um.|Bel- la|pre- munt|bel- la hos-|ti- li- a da|ro- bur,|ro- bur,|
 cd B2 e2 | A4 z2 |!ff! D4 ^F2 | A2 ^F2 z2 | D2 ^F2 A2 | cA ^F2!p! B2 | d2 B2 z2 | B2 G2 z2 | %27
w: fer au- xi- li-|um.|Bel- la|pre- munt|bel- la hos-|ti- li- a da|ro- bur,|ro- bur,|
 Bc A2!pp! d2 | G4 z2 |!ff! G4 B2 | d2 B2 z2 | G2 B2 d2 | fd B2!p! G2 | G6- | G4 GF |!pp! EFGA B2 | %36
w: fer au- xi- li-|um.|Bel- la|pre- munt|bel- la hos-|ti- li- a da|ro-|* bur au-|xi- * * * li-|
!<(! c4!<)!!f! c2 | e4 d2- | d2 g4- | (g2 ^fe) fe | dc BA G2 |!p! (=F2 A2) d2 |!<(! (e4 d2-!<)! | %43
w: um. O|sa- lu-|* ta-|* * * ris _|hos- * ti- * a,|sa- * lu-|ta- *|
!f! d2 g2 =f2) | e4 z2 |!pp! c2 c2 c2 |!<(! c4 c2!<)! |!ff!!>(! c4 c2!>)! |!pp! !fermata!c4 |] %49
w: |ris,|o sa- lu-|ta- ris|hos- ti-|a.|
V:4
 z2 | z6 | z2 B,,2 C,2 | D,6 | G,2 z2 z2 | z6 | z6 | z6 | z6 |!p! C2 G,2 C,2 | C2 G,2 C,2 | %11
w: ||sa- lu-|ta-|ris|||||quae coe- li|quae pan- dis|
!pp! G,,4 G,,2 | C,4 z2 |!ff! E,4 ^G,2 | B,2 ^G,2 z2 | E,2 ^G,2 B,2 | DB, ^G,2 z2 | z6 | z6 | z6 | %20
w: os- ti-|um.|Bel- la|pre- munt|bel- la hos-|ti- li- a||||
 z6 |!ff! D,4 ^F,2 | A,2 ^F,2 z2 | D,2 ^F,2 A,2 | CA, ^F,2 z2 | z6 | z6 | z6 | z6 | z6 | %30
w: |Bel- la|pre- munt|bel- la hos-|ti- li- a||||||
 z2!ff! G,2 G,2 | G,2 G,2 z2 | z6 |!p! C2 G,2 C,2 | C2 G,2 C,2 |!pp! G,,2 G,2 F,2 | %36
w: Bel- la,|bel- la||da ro- bur,|da ro- bur|au- xi- li-|
!<(! E,4!<)!!f! E,2 | (A,2 G,2) ^F,2 | (G,2 E,2 ^C,2 | D,4) =C2 | B,A, G,=F, E,2 | %41
w: um. O|sa- * lu-|ta- * *|* ris|hos- * ti- * a,|
!p! (D,2 C,2) B,,2 |!<(! (C,2 A,,2) ^F,,2!<)! |!f! G,,4 G,,2 | C,4 z2 |!pp! C,2 C,2 C,2 | %46
w: sa- * lu-|ta- * ris|hos- ti-|a,|o sa- lu-|
!<(! C,4 C,2!<)! |!ff!!>(! C,4 C,2!>)! |!pp! !fermata!C,4 |] %49
w: ta- ris|hos- ti-|a.|

